X: 1
T: Johnny In The Fog
M: 4/4
L: 1/8
R: reel
K: Dmix
A2Gc AD (3EFG|A2AF G2ED|EAAG A2cG|(3EFG cA GCEG:|
|:FD~D2 A,DEG|FD~D2 GCEG|FD~D2 A,DFD|1 (3EFG cA GCEG:|2 (3EFG cA GAB^c||
|:d2fd edfd|~d2fd A3B|1 c2ec dcec|~c2ec ABcA:|2 ~c2ec dcAB|~c3A GCEG||
